X: 2336
T: CONSTITUTION HORNPIPE
R: hornpipe
B: Kerr's v.2 p.37 #336
Z: 2016 John Chambers <jc:trillian.mit.edu>
M: C
L: 1/8
K: F
(3(cde) |\
f2f2 fcaf | g2g2 gcbg |\
[1,3 agfe dgba | g^fga g2 :|\
[2,4 agfe dbge | f2f2f2 :|
|: c2 |:\
Acfc afcA | Bdfd bfdB |\
[1,3 cege bgeg | fagf edcB :|\
[2,4 cege bgeg | f2f2f2 :|

%%sep 1 1 500
%%sep 1 1 500

